packages/icons/svg/Navigation_Display_Home_48px.svg

<svg xmlns="http://www.w3.org/2000/svg" viewBox="0 0 48 48"><path d="M43.56 22.94l-18.5-18.5a1.49 1.49 0 00-2.12 0l-18.5 18.5a1.5 1.5 0 002.12 2.12l.44-.44V42.5A1.5 1.5 0 008.5 44h11a1.5 1.5 0 001.5-1.5V32h6v10.5a1.5 1.5 0 001.5 1.5h11a1.5 1.5 0 001.5-1.5V24.62l.44.44a1.5 1.5 0 002.12 0 1.49 1.49 0 000-2.12zM38 41h-8V30.5a1.5 1.5 0 00-1.5-1.5h-9a1.5 1.5 0 00-1.5 1.5V41h-8V21.62l14-14 14 14z"/></svg>

<svg xmlns="http://www.w3.org/2000/svg" viewBox="0 0 48 48"><defs></defs><g id="Icon"><path  d="M43.56,22.94,25.06,4.44a1.49,1.49,0,0,0-2.12,0L4.44,22.94a1.5,1.5,0,0,0,2.12,2.12L7,24.62V42.5A1.5,1.5,0,0,0,8.5,44h11A1.5,1.5,0,0,0,21,42.5V32h6V42.5A1.5,1.5,0,0,0,28.5,44h11A1.5,1.5,0,0,0,41,42.5V24.62l.44.44a1.5,1.5,0,0,0,2.12,0A1.49,1.49,0,0,0,43.56,22.94ZM38,41H30V30.5A1.5,1.5,0,0,0,28.5,29h-9A1.5,1.5,0,0,0,18,30.5V41H10V21.62l14-14,14,14Z"/></g></svg>
